Hatter-kde/actions/22/food.svg

<svg xmlns="http://www.w3.org/2000/svg" viewBox="0 0 22 22">
  <defs id="defs3051">
    <style type="text/css" id="current-color-scheme">
      .ColorScheme-Text {
        color:#363636;
      }
      </style>
  </defs>
 <path
     style="fill:currentColor;"
     d="M 11.5 2 C 9.7203433 2.0000001 8.2996401 3.3609525 8.0839844 5.0839844 C 6.3609526 5.2996404 5 6.7203429 5 8.5 C 5 10.093039 6.081695 11.429106 7.5429688 11.849609 L 10.533203 19.814453 A 0.50005001 0.50005001 0 0 0 11.470703 19.814453 L 14.455078 11.849609 C 15.917269 11.429698 17 10.093693 17 8.5 C 16.998334 7.1624335 16.166784 6.0355303 14.990234 5.4511719 C 14.96235 3.5477911 13.409778 2.0000001 11.5 2 z M 11.5 3 C 12.88598 3 13.998951 4.1123243 14 5.4980469 C 13.998562 5.541931 13.995929 5.5851582 13.992188 5.6289062 A 0.50005001 0.50005001 0 0 0 14.326172 6.1445312 C 15.329861 6.4954944 15.998676 7.4367195 16 8.5 C 16 9.8866342 14.886634 11 13.5 11 C 12.660843 10.999257 11.880712 10.578956 11.417969 9.8789062 A 0.50005001 0.50005001 0 0 0 10.582031 9.8789062 C 10.119288 10.578956 9.3391666 10.999256 8.5 11 C 7.1133658 11 6 9.8866342 6 8.5 C 6 7.1133658 7.1133658 6 8.5 6 A 0.50005001 0.50005001 0 0 0 9 5.5 C 9 4.1133658 10.113366 3 11.5 3 z M 11 10.810547 C 11.61818 11.475336 12.426988 11.928567 13.337891 11.980469 L 10.998047 18.220703 L 8.6601562 11.980469 C 9.5718648 11.929127 10.381376 11.475813 11 10.810547 z"
     class="ColorScheme-Text"
     />
</svg>

<?xml version="1.0" encoding="UTF-8"?>
<svg viewBox="0 0 22 22" xmlns="http://www.w3.org/2000/svg">
 <defs id="defs3051">
  <style id="current-color-scheme" type="text/css">.ColorScheme-Text {
        color:#363636;
      }</style>
 </defs>
 <path class="ColorScheme-Text" d="m11.5 2c-1.7797 1e-7 -3.2004 1.361-3.416 3.084-1.723 0.21566-3.084 1.6364-3.084 3.416 0 1.593 1.0817 2.9291 2.543 3.3496l2.9902 7.9648a0.50005 0.50005 0 0 0 0.9375 0l2.9844-7.9648c1.4622-0.41991 2.5449-1.7559 2.5449-3.3496-0.001666-1.3376-0.83322-2.4645-2.0098-3.0488-0.027884-1.9034-1.5805-3.4512-3.4902-3.4512zm0 1c1.386 0 2.499 1.1123 2.5 2.498-0.001438 0.043884-0.004071 0.087111-0.007812 0.13086a0.50005 0.50005 0 0 0 0.33398 0.51562c1.0037 0.35096 1.6725 1.2922 1.6738 2.3555 0 1.3866-1.1134 2.5-2.5 2.5-0.83916-7.43e-4 -1.6193-0.42104-2.082-1.1211a0.50005 0.50005 0 0 0-0.83594 0c-0.46274 0.70005-1.2429 1.1203-2.082 1.1211-1.3866 0-2.5-1.1134-2.5-2.5s1.1134-2.5 2.5-2.5a0.50005 0.50005 0 0 0 0.5-0.5c0-1.3866 1.1134-2.5 2.5-2.5zm-0.5 7.8105c0.61818 0.66479 1.427 1.118 2.3379 1.1699l-2.3398 6.2402-2.3379-6.2402c0.91171-0.051342 1.7212-0.50466 2.3398-1.1699z" fill="currentColor"/>
</svg>
